img/svg/editors/person.svg

<svg width="29" height="28" viewBox="0 0 29 28" fill="none" xmlns="http://www.w3.org/2000/svg">
<path d="M14.6992 16.25C18.9688 16.25 21.4571 17.5274 22.877 18.9473C24.3115 20.3818 24.6992 22.0034 24.6992 22.75C24.6992 23.1 24.6132 23.3293 24.5098 23.4844C24.4043 23.6426 24.26 23.7543 24.1006 23.834C23.9393 23.9146 23.7719 23.9576 23.6406 23.9795C23.5764 23.9902 23.5238 23.9956 23.4893 23.998C23.4721 23.9993 23.4591 23.9998 23.4521 24H5.94629C5.93937 23.9998 5.92637 23.9993 5.90918 23.998C5.87461 23.9956 5.82201 23.9902 5.75781 23.9795C5.62652 23.9576 5.45918 23.9146 5.29785 23.834C5.13842 23.7543 4.99416 23.6426 4.88867 23.4844C4.78527 23.3293 4.69922 23.1 4.69922 22.75C4.69922 22.0034 5.08695 20.3818 6.52148 18.9473C7.94136 17.5274 10.4297 16.25 14.6992 16.25ZM14.6992 17C10.8432 17 8.5964 18.0768 7.29883 19.2432L7.05176 19.4775C5.76832 20.761 5.45374 22.1836 5.44922 22.7393L5.44531 23.2432H23.9512L23.9492 22.7412C23.9469 22.1831 23.6294 20.7603 22.3467 19.4775C21.0945 18.2253 18.8107 17 14.6992 17ZM14.6992 4C15.8803 4 17.0163 4.4395 17.8877 5.22852L18.0576 5.3916C18.9484 6.2824 19.4492 7.49022 19.4492 8.75C19.4492 10.0098 18.9484 11.2176 18.0576 12.1084C17.1668 12.9992 15.959 13.5 14.6992 13.5C13.5181 13.5 12.3821 13.0605 11.5107 12.2715L11.3408 12.1084C10.45 11.2176 9.94922 10.0098 9.94922 8.75C9.94922 7.56893 10.3887 6.43288 11.1777 5.56152L11.3408 5.3916C12.2316 4.5008 13.4394 4 14.6992 4ZM14.6992 4.75C13.7046 4.75 12.7484 5.12069 12.0146 5.78516L11.8711 5.92188C11.1209 6.67202 10.6992 7.68913 10.6992 8.75C10.6992 9.74461 11.0699 10.7008 11.7344 11.4346L11.8711 11.5781C12.6212 12.3283 13.6384 12.75 14.6992 12.75C15.6938 12.75 16.65 12.3793 17.3838 11.7148L17.5273 11.5781C18.2775 10.828 18.6992 9.81087 18.6992 8.75C18.6992 7.75539 18.3285 6.79921 17.6641 6.06543L17.5273 5.92188C16.7772 5.17173 15.7601 4.75 14.6992 4.75Z" fill="#030303" stroke="#FBFBFB"/>
</svg>

<svg width="29" height="28" fill="none" xmlns="http://www.w3.org/2000/svg"><path d="M14.7 16.25c4.269 0 6.757 1.277 8.177 2.697 1.434 1.435 1.822 3.056 1.822 3.803 0 .35-.086.58-.19.734a1.03 1.03 0 01-.408.35 1.654 1.654 0 01-.649.166H5.946c-.007 0-.02 0-.037-.002a1.654 1.654 0 01-.611-.164 1.037 1.037 0 01-.41-.35c-.103-.155-.189-.384-.189-.734 0-.747.388-2.368 1.822-3.803 1.42-1.42 3.909-2.697 8.178-2.697zm0 .75c-3.857 0-6.104 1.077-7.401 2.243l-.247.235c-1.284 1.283-1.598 2.706-1.603 3.261l-.004.504h18.506l-.002-.502c-.002-.558-.32-1.98-1.602-3.264C21.094 18.226 18.81 17 14.699 17zm0-13a4.75 4.75 0 013.188 1.229l.17.163a4.75 4.75 0 01-6.547 6.88l-.17-.164a4.75 4.75 0 01-.163-6.546l.163-.17A4.75 4.75 0 0114.699 4zm0 .75a4 4 0 00-2.685 1.035l-.144.137a4 4 0 00-.137 5.513l.137.143a4 4 0 005.513.137l.143-.137a4 4 0 00.137-5.513l-.137-.143A4 4 0 0014.7 4.75z" fill="#030303" stroke="#FBFBFB"/></svg>
